images/bg.svg

<svg width="340" height="250" xmlns="http://www.w3.org/2000/svg" color-interpolation-filters="sRGB" preserveAspectRatio="xMidYMid meet" version="1.0">
 <!---->

 <g>
  <title>Layer 1</title>
  <rect stroke="#feffff" id="svg_13" class="background" fill="#efe0b8" height="250" width="340" y="0" x="-0.33333"/>
  <g id="svg_14" class="iconlettersvg-g iconlettersvg" fill="#333">
   <g id="svg_15">
    <g id="svg_16" class="tp-name">
     <g id="svg_17" transform="translate(63.125 102.5) scale(1 1)">
      <g id="svg_18">
       <g id="svg_19" class="name-imagesvg">
        <g id="svg_20">
         <rect id="svg_21" class="image-rect" height="45" width="33.75" y="0" x="0" stroke-width="2" fill-opacity="0" fill="#333"/>
         <g id="svg_1">
          <svg id="svg_22" class="image-svg-svg primary" filtersec="colorsb7845553639" height="45" width="33.75" y="0" x="0">
           <g id="svg_2">
            <svg id="svg_23" viewBox="0 0 351 468" xmlns="http://www.w3.org/2000/svg">
             <path id="svg_24" opacity="0.7" fill="#94d30e" d="m324.19,324.19l0,41.43a2.44,2.44 0 0 1 -4.21,1.69l-85.98,-90.31l-202.31,-212.41l0,374.16a2.44,2.44 0 0 1 -4.88,0l0,-380.25a2.44,2.44 0 0 1 4.19,-1.68l203,213.18l85.31,89.58l0,-40.27l-85.31,-85.31l-234,-234l0,468l351,0l0,-117l-26.81,-26.81z"/>
             <path id="svg_25" opacity="0.7" fill="#2f97dd" d="m234,0l0,270l85.31,89.58l0,-330.33a2.44,2.44 0 0 1 4.88,0l0,336.37a2.44,2.44 0 0 1 -4.21,1.69l-85.98,-90.31l0,191l117,0l0,-468l-117,0z"/>
            </svg>
           </g>
          </svg>
         </g>
         <!---->
        </g>
       </g>
      </g>
      <g id="svg_26">
       <g id="svg_27" class="name-imagesvg">
        <g id="svg_28">
         <rect id="svg_29" class="image-rect" height="45" width="45" y="0" x="33.75" stroke-width="2" fill-opacity="0" fill="#333"/>
         <g id="svg_3">
          <svg id="svg_30" class="image-svg-svg primary" filtersec="colorsb1240972116" height="45" width="45" y="0" x="33.75">
           <g id="svg_4">
            <svg id="svg_31" viewBox="0 0 468 468" xmlns="http://www.w3.org/2000/svg">
             <path id="svg_32" opacity="0.7" fill="#fa991a" d="m468,468l-26.82,0a2.28,2.28 0 0 0 -0.25,-1.08l-203.93,-410.32a2.44,2.44 0 0 0 -2.17,-1.35a2.44,2.44 0 0 0 -2.18,1.35l-205.58,410.31a2.49,2.49 0 0 0 -0.26,1.09l-26.81,0l234,-468l234,468zm-119.33,-175.76l-71.67,-144.13l-42.23,-85l-199.9,399l131.83,-71.39l181.97,-98.48zm-185.29,105.89l-129.01,69.87l401.63,0l-85.16,-171.39l-187.46,101.52z"/>
             <path id="svg_33" opacity="0.7" fill="#f9d611" d="m348.67,292.24l-181.94,98.54l110.27,-242.67l71.67,144.13zm2.17,4.37l-187.46,101.52l-31.76,69.87l304.38,0l-85.16,-171.39z"/>
            </svg>
           </g>
          </svg>
         </g>
         <!---->
        </g>
       </g>
      </g>
      <g id="svg_34">
       <g id="svg_35" class="name-imagesvg">
        <g id="svg_36">
         <rect id="svg_37" class="image-rect" height="45" width="33.75" y="0" x="78.75" stroke-width="2" fill-opacity="0" fill="#333"/>
         <g id="svg_5">
          <svg id="svg_38" class="image-svg-svg primary" filtersec="colorsb7453542049" height="45" width="33.75" y="0" x="78.75">
           <g id="svg_6">
            <svg id="svg_39" viewBox="0 0 351 468" xmlns="http://www.w3.org/2000/svg">
             <path id="svg_40" opacity="0.7" fill="#94d30e" d="m324.19,324.19l0,41.43a2.44,2.44 0 0 1 -4.21,1.69l-85.98,-90.31l-202.31,-212.41l0,374.16a2.44,2.44 0 0 1 -4.88,0l0,-380.25a2.44,2.44 0 0 1 4.19,-1.68l203,213.18l85.31,89.58l0,-40.27l-85.31,-85.31l-234,-234l0,468l351,0l0,-117l-26.81,-26.81z"/>
             <path id="svg_41" opacity="0.7" fill="#2f97dd" d="m234,0l0,270l85.31,89.58l0,-330.33a2.44,2.44 0 0 1 4.88,0l0,336.37a2.44,2.44 0 0 1 -4.21,1.69l-85.98,-90.31l0,191l117,0l0,-468l-117,0z"/>
            </svg>
           </g>
          </svg>
         </g>
         <!---->
        </g>
       </g>
      </g>
      <g id="svg_42">
       <g id="svg_43" class="name-imagesvg">
        <g id="svg_44">
         <rect id="svg_45" class="image-rect" height="45" width="11.25" y="0" x="112.5" stroke-width="2" fill-opacity="0" fill="#333"/>
         <g id="svg_7">
          <svg id="svg_46" class="image-svg-svg primary" filtersec="colorsb3628372390" height="45" width="11.25" y="0" x="112.5">
           <g id="svg_8">
            <svg id="svg_47" viewBox="0 0 117 468" xmlns="http://www.w3.org/2000/svg">
             <path id="svg_48" opacity="0.7" fill="#6228f1" d="m0,0l0,468l117,0l0,-468l-117,0zm31.69,438.75a2.44,2.44 0 0 1 -4.88,0l0,-409.5a2.44,2.44 0 0 1 4.88,0l0,409.5z"/>
            </svg>
           </g>
          </svg>
         </g>
         <!---->
        </g>
       </g>
      </g>
      <g id="svg_49">
       <g id="svg_50" class="name-imagesvg">
        <g id="svg_51">
         <rect id="svg_52" class="image-rect" height="45" width="45" y="0" x="123.75" stroke-width="2" fill-opacity="0" fill="#333"/>
         <g id="svg_9">
          <svg id="svg_53" class="image-svg-svg primary" filtersec="colorsb2291484154" height="45" width="45" y="0" x="123.75">
           <g id="svg_10">
            <svg id="svg_54" viewBox="0 0 468 468" xmlns="http://www.w3.org/2000/svg">
             <path id="svg_55" opacity="0.7" fill="#f9d611" d="m117,0l-117,0l0,468l117,-156l54.76,-73l-54.76,-57.65l-43.92,-46.23l-41.39,41.39l0,218.37a2.44,2.44 0 0 1 -4.88,0l0,-365.63a2.44,2.44 0 0 1 4.88,0l0,140.37l69,-69l16.31,-16.32l56.78,-56.77a2.43,2.43 0 0 1 3.44,3.47l-60.22,60.2l-12.9,12.9l-27.57,27.57l40.47,42.6l57.72,60.73l25.85,-34.46l150.43,-200.54l-234,0z"/>
             <path id="svg_56" opacity="0.7" fill="#fd2965" d="m0,0l0,468l117,0l0,-286.65l-43.92,-46.23l-41.39,41.39l0,218.37a2.44,2.44 0 0 1 -4.88,0l0,-365.63a2.44,2.44 0 0 1 4.88,0l0,140.37l69,-69l16.31,-16.32l0,-84.3l-117,0z"/>
             <path id="svg_57" d="m76.53,131.67l40.47,42.6l0,-83.07l-12.9,12.9l-27.57,27.57z" opacity="0.7" fill="#fd2965"/>
             <path id="svg_58" opacity="0.7" fill="#fa991a" d="m200.57,200.57l-83.57,-83.57l-12.9,-12.9l-27.57,27.57l40.47,42.6l57.72,60.73l178,187.42a2.44,2.44 0 0 1 -3.54,3.35l-177.42,-186.77l-54.76,-57.65l-43.92,-46.23l-41.39,41.39l0,218.37a2.44,2.44 0 0 1 -4.88,0l0,-365.63a2.43,2.43 0 0 1 0.72,-1.72l-27.53,-27.53l0,468l468,0l-267.43,-267.43z"/>
             <path id="svg_59" d="m31.69,31.69l0,137.93l68.96,-68.97l-68.96,-68.96z" opacity="0.7" fill="#fa991a"/>
            </svg>
           </g>
          </svg>
         </g>
         <!---->
        </g>
       </g>
      </g>
      <g id="svg_60">
       <g id="svg_61" class="name-imagesvg">
        <g id="svg_62">
         <rect id="svg_63" class="image-rect" height="45" width="45" y="0" x="168.75" stroke-width="2" fill-opacity="0" fill="#333"/>
         <g id="svg_11">
          <svg id="svg_64" class="image-svg-svg primary" filtersec="colorsb9841384775" height="45" width="45" y="0" x="168.75">
           <g id="svg_12">
            <svg id="svg_65" viewBox="0 0 468 468" xmlns="http://www.w3.org/2000/svg">
             <path id="svg_66" opacity="0.7" fill="#fd2965" d="m234,0c-129.23,0 -234,104.77 -234,234s104.77,234 234,234s234,-104.77 234,-234s-104.77,-234 -234,-234zm-7.31,441.19c-110.21,0 -199.88,-89.67 -199.88,-199.88s89.67,-199.87 199.88,-199.87c81.78,0 152.23,49.37 183.14,119.87a200,200 0 0 1 -183.14,279.88z"/>
             <path id="svg_67" opacity="0.7" fill="#fd2965" d="m396.84,146.16a195.13,195.13 0 0 0 -170.15,-99.85c-107.53,0 -195,87.48 -195,195s87.47,195 195,195a194.91,194.91 0 0 0 170.15,-290.15z"/>
             <path id="svg_68" opacity="0.7" fill="#f9d611" d="m396.84,146.16a146.23,146.23 0 1 0 -25.26,225.51a194.61,194.61 0 0 0 25.26,-225.51z"/>
             <path id="svg_69" opacity="0.7" fill="#f9d611" d="m409.83,161.31a199.53,199.53 0 0 1 -22.22,198.41a146.25,146.25 0 0 0 22.22,-198.41z"/>
            </svg>
           </g>
          </svg>
         </g>
         <!---->
        </g>
       </g>
      </g>
     </g>
    </g>
   </g>
   <!---->
  </g>
 </g>
</svg>

<svg data-v-2cb57da0="" version="1.0" xmlns="http://www.w3.org/2000/svg" xmlns:xlink="http://www.w3.org/1999/xlink" width="100%" height="100%" viewBox="0 0 340.000000 250.000000" preserveAspectRatio="xMidYMid meet" color-interpolation-filters="sRGB" style="margin: auto;"><rect data-v-2cb57da0="" x="0" y="0" width="100%" height="100%" fill="#feffff" fill-opacity="1" class="background"></rect> <!----> <g data-v-2cb57da0="" fill="#333" class="iconlettersvg-g iconlettersvg" transform="translate(63.125,102.5)"><g><g class="tp-name"><g transform="scale(1)"><g transform="translate(0, 0)"><g class="name-imagesvg"><g><rect fill="#333" fill-opacity="0" stroke-width="2" x="0" y="0" width="33.75" height="45" class="image-rect"></rect> <svg x="0" y="0" width="33.75" height="45" filtersec="colorsb7845553639" class="image-svg-svg primary" style="overflow: visible;"><svg xmlns="http://www.w3.org/2000/svg" viewBox="0 0 351 468"><path d="M324.19 324.19v41.43a2.44 2.44 0 0 1-4.21 1.69L234 277 31.69 64.59v374.16a2.44 2.44 0 0 1-4.88 0V58.5A2.44 2.44 0 0 1 31 56.82L234 270l85.31 89.58v-40.27L234 234 0 0v468h351V351z" fill="#94d30e" opacity=".7"></path><path d="M234 0v270l85.31 89.58V29.25a2.44 2.44 0 0 1 4.88 0v336.37a2.44 2.44 0 0 1-4.21 1.69L234 277v191h117V0z" fill="#2f97dd" opacity=".7"></path></svg></svg> <!----></g></g></g><g transform="translate(33.75, 0)"><g class="name-imagesvg"><g><rect fill="#333" fill-opacity="0" stroke-width="2" x="0" y="0" width="45" height="45" class="image-rect"></rect> <svg x="0" y="0" width="45" height="45" filtersec="colorsb1240972116" class="image-svg-svg primary" style="overflow: visible;"><svg xmlns="http://www.w3.org/2000/svg" viewBox="0 0 468 468"><path d="M468 468h-26.82a2.28 2.28 0 0 0-.25-1.08L237 56.6a2.44 2.44 0 0 0-2.17-1.35 2.44 2.44 0 0 0-2.18 1.35L27.07 466.91a2.49 2.49 0 0 0-.26 1.09H0L234 0zM348.67 292.24L277 148.11l-42.23-85-199.9 399 131.83-71.39zM163.38 398.13L34.37 468H436l-85.16-171.39z" fill="#fa991a" opacity=".7"></path><path d="M348.67 292.24l-181.94 98.54L277 148.11zm2.17 4.37L163.38 398.13 131.62 468H436z" fill="#f9d611" opacity=".7"></path></svg></svg> <!----></g></g></g><g transform="translate(78.75, 0)"><g class="name-imagesvg"><g><rect fill="#333" fill-opacity="0" stroke-width="2" x="0" y="0" width="33.75" height="45" class="image-rect"></rect> <svg x="0" y="0" width="33.75" height="45" filtersec="colorsb7453542049" class="image-svg-svg primary" style="overflow: visible;"><svg xmlns="http://www.w3.org/2000/svg" viewBox="0 0 351 468"><path d="M324.19 324.19v41.43a2.44 2.44 0 0 1-4.21 1.69L234 277 31.69 64.59v374.16a2.44 2.44 0 0 1-4.88 0V58.5A2.44 2.44 0 0 1 31 56.82L234 270l85.31 89.58v-40.27L234 234 0 0v468h351V351z" fill="#94d30e" opacity=".7"></path><path d="M234 0v270l85.31 89.58V29.25a2.44 2.44 0 0 1 4.88 0v336.37a2.44 2.44 0 0 1-4.21 1.69L234 277v191h117V0z" fill="#2f97dd" opacity=".7"></path></svg></svg> <!----></g></g></g><g transform="translate(112.5, 0)"><g class="name-imagesvg"><g><rect fill="#333" fill-opacity="0" stroke-width="2" x="0" y="0" width="11.25" height="45" class="image-rect"></rect> <svg x="0" y="0" width="11.25" height="45" filtersec="colorsb3628372390" class="image-svg-svg primary" style="overflow: visible;"><svg xmlns="http://www.w3.org/2000/svg" viewBox="0 0 117 468"><path d="M0 0v468h117V0zm31.69 438.75a2.44 2.44 0 0 1-4.88 0V29.25a2.44 2.44 0 0 1 4.88 0z" fill="#6228f1" opacity=".7"></path></svg></svg> <!----></g></g></g><g transform="translate(123.75, 0)"><g class="name-imagesvg"><g><rect fill="#333" fill-opacity="0" stroke-width="2" x="0" y="0" width="45" height="45" class="image-rect"></rect> <svg x="0" y="0" width="45" height="45" filtersec="colorsb2291484154" class="image-svg-svg primary" style="overflow: visible;"><svg xmlns="http://www.w3.org/2000/svg" viewBox="0 0 468 468"><path d="M117 0H0v468l117-156 54.76-73L117 181.35l-43.92-46.23-41.39 41.39v218.37a2.44 2.44 0 0 1-4.88 0V29.25a2.44 2.44 0 0 1 4.88 0v140.37l69-69L117 84.3l56.78-56.77a2.43 2.43 0 0 1 3.44 3.47L117 91.2l-12.9 12.9-27.57 27.57 40.47 42.6L174.72 235l25.85-34.46L351 0z" fill="#f9d611" opacity=".7"></path><path d="M0 0v468h117V181.35l-43.92-46.23-41.39 41.39v218.37a2.44 2.44 0 0 1-4.88 0V29.25a2.44 2.44 0 0 1 4.88 0v140.37l69-69L117 84.3V0z" fill="#fd2965" opacity=".7"></path><path fill="#fd2965" opacity=".7" d="M76.53 131.67l40.47 42.6V91.2l-12.9 12.9-27.57 27.57z"></path><path d="M200.57 200.57L117 117l-12.9-12.9-27.57 27.57 40.47 42.6L174.72 235l178 187.42a2.44 2.44 0 0 1-3.54 3.35L171.76 239 117 181.35l-43.92-46.23-41.39 41.39v218.37a2.44 2.44 0 0 1-4.88 0V29.25a2.43 2.43 0 0 1 .72-1.72L0 0v468h468z" fill="#fa991a" opacity=".7"></path><path fill="#fa991a" opacity=".7" d="M31.69 31.69v137.93l68.96-68.97-68.96-68.96z"></path></svg></svg> <!----></g></g></g><g transform="translate(168.75, 0)"><g class="name-imagesvg"><g><rect fill="#333" fill-opacity="0" stroke-width="2" x="0" y="0" width="45" height="45" class="image-rect"></rect> <svg x="0" y="0" width="45" height="45" filtersec="colorsb9841384775" class="image-svg-svg primary" style="overflow: visible;"><svg xmlns="http://www.w3.org/2000/svg" viewBox="0 0 468 468"><path d="M234 0C104.77 0 0 104.77 0 234s104.77 234 234 234 234-104.77 234-234S363.23 0 234 0zm-7.31 441.19c-110.21 0-199.88-89.67-199.88-199.88S116.48 41.44 226.69 41.44c81.78 0 152.23 49.37 183.14 119.87a200 200 0 0 1-183.14 279.88z" fill="#fd2965" opacity=".7"></path><path d="M396.84 146.16a195.13 195.13 0 0 0-170.15-99.85c-107.53 0-195 87.48-195 195s87.47 195 195 195a194.91 194.91 0 0 0 170.15-290.15z" fill="#fd2965" opacity=".7"></path><path d="M396.84 146.16a146.23 146.23 0 1 0-25.26 225.51 194.61 194.61 0 0 0 25.26-225.51z" fill="#f9d611" opacity=".7"></path><path d="M409.83 161.31a199.53 199.53 0 0 1-22.22 198.41 146.25 146.25 0 0 0 22.22-198.41z" fill="#f9d611" opacity=".7"></path></svg></svg> <!----></g></g></g></g></g></g> <!----></g><defs v-gra="od"></defs></svg>
